src/24/code-24.svg

<?xml version="1.0" encoding="iso-8859-1"?>
<!-- Generator: Adobe Illustrator 19.1.0, SVG Export Plug-In . SVG Version: 6.00 Build 0)  -->
<!DOCTYPE svg PUBLIC "-//W3C//DTD SVG 1.1 Tiny//EN" "http://www.w3.org/Graphics/SVG/1.1/DTD/svg11-tiny.dtd">
<svg version="1.1" baseProfile="tiny" id="Layer_1" xmlns="http://www.w3.org/2000/svg" xmlns:xlink="http://www.w3.org/1999/xlink"
	 x="0px" y="0px" viewBox="0 0 24 24" xml:space="preserve">
<path d="M6.622,12.669c-0.128,0-0.256-0.049-0.354-0.146c-0.195-0.195-0.195-0.512,0-0.707l2.19-2.19l-2.19-2.19
	c-0.195-0.195-0.195-0.512,0-0.707s0.512-0.195,0.707,0L9.52,9.272c0.094,0.094,0.146,0.221,0.146,0.354S9.613,9.885,9.52,9.979
	l-2.544,2.543C6.878,12.62,6.75,12.669,6.622,12.669z"/>
<path d="M17,11h-5c-0.276,0-0.5-0.224-0.5-0.5S11.724,10,12,10h5c0.276,0,0.5,0.224,0.5,0.5S17.276,11,17,11z"/>
<path d="M23.5,22h-23C0.224,22,0,21.776,0,21.5v-20C0,1.224,0.224,1,0.5,1h23C23.776,1,24,1.224,24,1.5v20
	C24,21.776,23.776,22,23.5,22z M1,21h22V2H1V21z"/>
<path d="M20.5,19h-17C3.224,19,3,18.776,3,18.5v-14C3,4.224,3.224,4,3.5,4h17C20.776,4,21,4.224,21,4.5v14
	C21,18.776,20.776,19,20.5,19z M4,18h16V5H4V18z"/>
</svg>

<svg baseProfile="tiny" xmlns="http://www.w3.org/2000/svg" viewBox="0 0 24 24"><path d="M6.622 12.669a.5.5 0 0 1-.354-.853l2.19-2.19-2.19-2.19a.5.5 0 0 1 .707-.707L9.52 9.272a.5.5 0 0 1 0 .707l-2.544 2.543a.5.5 0 0 1-.354.147zM17 11h-5a.5.5 0 0 1 0-1h5a.5.5 0 0 1 0 1z"/><path d="M23.5 22H.5a.5.5 0 0 1-.5-.5v-20A.5.5 0 0 1 .5 1h23a.5.5 0 0 1 .5.5v20a.5.5 0 0 1-.5.5zM1 21h22V2H1v19z"/><path d="M20.5 19h-17a.5.5 0 0 1-.5-.5v-14a.5.5 0 0 1 .5-.5h17a.5.5 0 0 1 .5.5v14a.5.5 0 0 1-.5.5zM4 18h16V5H4v13z"/></svg>
